docs/assets/img/slider-control.svg

<svg width="12" height="12" viewBox="0 0 12 12" fill="none" xmlns="http://www.w3.org/2000/svg">
<path d="M3.04141 1.17676L3.04098 1.1769L3.03818 1.17775C2.58039 1.31804 2.19135 1.43727 1.87604 1.66334L1.87364 1.66506L1.87364 1.66505C1.1701 2.16166 0.878763 3.11881 0.706616 4.15169L0.70651 4.15233C0.686619 4.2705 0.666194 4.3886 0.645786 4.50661C0.538506 5.12693 0.431713 5.74445 0.405803 6.35331C0.375261 7.07105 0.460773 7.73253 0.771192 8.31046C1.62608 9.87795 3.43772 11.1708 5.19279 11.1776C6.15002 11.1775 7.09623 10.9169 8.09179 10.6428L8.09673 10.6415C8.95716 10.4008 9.73427 10.1581 10.2553 9.61951C10.711 9.13842 10.9386 8.47195 11.1794 7.72762C11.4798 6.78079 11.6382 5.95041 11.5921 5.16291C11.5466 4.38334 11.2993 3.62243 10.7505 2.8159L3.04141 1.17676ZM3.04141 1.17676C4.35254 0.773341 5.62043 0.40562 6.8935 0.499243M3.04141 1.17676L6.8935 0.499243M6.8935 0.499243C8.43326 0.617872 9.87375 1.53089 10.7505 2.81587L6.8935 0.499243Z" fill="#FFC525" stroke="white" stroke-width="0.8"/>
</svg>

<svg width="12" height="12" fill="none" xmlns="http://www.w3.org/2000/svg"><path d="M3.041 1.177h0-.003c-.458.141-.847.26-1.162.486l-.002.002h0C1.17 2.162.879 3.119.707 4.152h0l-.061.355c-.107.62-.214 1.237-.24 1.846-.03.718.055 1.38.365 1.957.855 1.568 2.667 2.86 4.422 2.868.957 0 1.903-.261 2.899-.535l.005-.002c.86-.24 1.637-.483 2.158-1.021.456-.482.684-1.148.924-1.892.3-.947.46-1.778.413-2.565-.045-.78-.293-1.54-.841-2.347l-7.71-1.64zm0 0C4.353.773 5.621.406 6.894.499m-3.853.678L6.894.499m0 0c1.54.119 2.98 1.032 3.857 2.317L6.894.499z" fill="#FFC525" stroke="#fff" stroke-width=".8"/></svg>
